X:3507
T:Cousin Couseine
R:Branle
A:Normandie
O:France
M:2/4
L:1/8
Q:1/4=100
K:F
AG|Ad cB/2c/2| A2 AG|Ad c2| AzAG| Ad  cB/2c/2|A2 AG|!
Ad c2|Az AF|FA AG/2A/2| G2 EG|FE DD/2A/2|A2 "," DD/2E/2|!
FF/2G/2 A/2A/2A/2A/2|d2 AA/2B/2|A/2B/2A/2G/2 A2|D2||


